panorama-sphere.svg

<svg fill="currentColor" viewBox="0 0 24 24"><path d="M22 8.1c-.3-.1-.7-.3-1-.4C19.4 4.3 16 2 12 2S4.6 4.3 3 7.7c-.3.1-.7.3-.9.4C1.4 8.5 1 9.2 1 9.9v4.2c0 .7.4 1.4 1 1.8.3.1.7.3 1 .4 1.6 3.4 5 5.7 9 5.7s7.4-2.3 9-5.7c.3-.1.6-.3.9-.5.6-.4 1.1-1 1.1-1.8V9.9c0-.7-.4-1.4-1-1.8M12 4c2.4 0 4.5 1 6 2.7-1.8-.5-3.9-.7-6-.7s-4.2.2-5.9.7C7.5 5 9.6 4 12 4m0 16c-2.4 0-4.5-1-5.9-2.7 1.7.5 3.8.7 5.9.7s4.2-.2 6-.7C16.5 19 14.4 20 12 20"/></svg>

<svg  viewBox="0 0 24 24" fill="currentColor"><path  d="M22 8.1C21.7 8 21.3 7.8 21 7.7C19.4 4.3 16 2 12 2S4.6 4.3 3 7.7C2.7 7.8 2.3 8 2.1 8.1C1.4 8.5 1 9.2 1 9.9V14.1C1 14.8 1.4 15.5 2 15.9C2.3 16 2.7 16.2 3 16.3C4.6 19.7 8 22 12 22S19.4 19.7 21 16.3C21.3 16.2 21.6 16 21.9 15.8C22.5 15.4 23 14.8 23 14V9.9C23 9.2 22.6 8.5 22 8.1M12 4C14.4 4 16.5 5 18 6.7C16.2 6.2 14.1 6 12 6S7.8 6.2 6.1 6.7C7.5 5 9.6 4 12 4M12 20C9.6 20 7.5 19 6.1 17.3C7.8 17.8 9.9 18 12 18S16.2 17.8 18 17.3C16.5 19 14.4 20 12 20Z"/></svg>
